%
(1001)
(T3 D=8. CR=0. - FLAT END MILL)
G90 G94 G17 G91.1
G21
G53 G0 Z0.
(FACE9)
T1
S10000 M3
G54
A90.
M8
G0 X101.2 Y-21.774
G43 Z41.
G0 Z31.
G1 Z25.8 F1920.
G18 G3 X100.4 Z25. I-0.8 K0.
G1 X96.
X21.
G17 G2 Y-14.625 I0. J3.575
G1 X96.
G3 Y-7.475 I0. J3.575
G1 X21.
G2 Y-0.325 I0. J3.575
G1 X96.
G3 Y6.825 I0. J3.575
G1 X21.
G2 Y13.974 I0. J3.575
G1 X96.
G3 Y21.124 I0. J3.575
G1 X21.
G18 G3 X20.2 Z25.8 I0. K0.8
G0 Z41.
G17
M9
G53 G0 Z0.
A180.
G0 X101.2 Y-21.774
G43 Z41.
G0 Z31.
G1 Z25.8 F1920.
G18 G3 X100.4 Z25. I-0.8 K0.
G1 X96.
X21.
G17 G2 Y-14.625 I0. J3.575
G1 X96.
G3 Y-7.475 I0. J3.575
G1 X21.
G2 Y-0.325 I0. J3.575
G1 X96.
G3 Y6.825 I0. J3.575
G1 X21.
G2 Y13.974 I0. J3.575
G1 X96.
G3 Y21.124 I0. J3.575
G1 X21.
G18 G3 X20.2 Z25.8 I0. K0.8
G0 Z41.
G17
M9
G53 G0 Z0.
A0.
G0 X101.2 Y-21.774
G43 Z41.
G0 Z31.
G1 Z25.8 F1920.
G18 G3 X100.4 Z25. I-0.8 K0.
G1 X96.
X21.
G17 G2 Y-14.625 I0. J3.575
G1 X96.
G3 Y-7.475 I0. J3.575
G1 X21.
G2 Y-0.325 I0. J3.575
G1 X96.
G3 Y6.825 I0. J3.575
G1 X21.
G2 Y13.974 I0. J3.575
G1 X96.
G3 Y21.124 I0. J3.575
G1 X21.
G18 G3 X20.2 Z25.8 I0. K0.8
G0 Z41.
G17
M9
G53 G0 Z0.
M30
%